lib/preview/nrk-logo-preview-nrk-3.svg

<svg width="47" height="14" viewBox="0 0 47 14" fill="currentColor" xmlns="http://www.w3.org/2000/svg">
<path d="M0 12.9972V0.998252H3.93719V12.9972H0ZM9.29381 2.90794L11.5581 12.9972H7.24917L4.54549 0.998252H6.96218C7.51635 0.99106 8.05406 1.18641 8.4745 1.54755C8.89562 1.89354 9.18495 2.37386 9.29381 2.90794ZM12.1495 12.9972V0.998252H16.0867V12.9972H12.1495ZM19.0605 5.56126C18.6362 5.5654 18.2188 5.45439 17.8525 5.24013C17.4912 5.03128 17.1911 4.73112 16.9823 4.36976C16.7678 4.00349 16.6568 3.58592 16.661 3.16148C16.6561 2.73962 16.7672 2.32454 16.9823 1.96159C17.1933 1.60415 17.4931 1.30726 17.8525 1.09968C18.2189 0.885664 18.6362 0.774676 19.0605 0.778546C19.4822 0.774004 19.8971 0.885091 20.2602 1.09968C20.616 1.30907 20.9127 1.60572 21.122 1.96159C21.3368 2.32464 21.4479 2.73966 21.4433 3.16148C21.4473 3.58589 21.3363 4.00339 21.122 4.36976C20.9149 4.72954 20.6179 5.02944 20.2602 5.24013C19.8971 5.45514 19.4819 5.56625 19.0599 5.56126H19.0605ZM22.0516 12.9972V0.998252H25.9892V12.9972H22.0516ZM30.9737 7.5554C30.9848 7.56704 31.0693 7.70505 31.2272 7.96943C31.3851 8.23382 31.5906 8.57185 31.8439 8.98345C32.0974 9.39487 32.3649 9.83142 32.6463 10.2932C32.9278 10.7549 33.1926 11.1915 33.4408 11.6029C33.6881 12.0144 33.9697 12.4791 34.2857 12.9972H29.9598C29.6893 12.5578 29.4441 12.1606 29.2245 11.8057C29.0048 11.4508 28.7713 11.0677 28.5238 10.6565C28.2758 10.2457 28.0306 9.8457 27.7882 9.45663C27.5458 9.06756 27.3375 8.72678 27.1633 8.43422C26.9883 8.14148 26.8671 7.94429 26.7997 7.8427C26.6325 7.59061 26.5336 7.29946 26.5127 6.99771C26.5294 6.7081 26.6226 6.42814 26.7828 6.18627C26.8504 6.07361 26.9743 5.87359 27.1545 5.58629C27.3348 5.299 27.546 4.95822 27.7882 4.56389C28.0304 4.16956 28.2756 3.76677 28.5238 3.35554C28.772 2.94431 29.0056 2.5584 29.2245 2.19787C29.4445 1.83771 29.6897 1.43775 29.9598 0.997977H34.2857L30.9396 6.45666C30.8361 6.61873 30.7777 6.80551 30.7706 6.99771C30.7818 7.19948 30.8522 7.39348 30.9731 7.5554H30.9737Z"/>
<path d="M45.9702 8.50114C45.8531 8.1638 45.6693 7.85348 45.4297 7.58868C45.1807 7.32082 44.8784 7.10789 44.5423 6.96348C44.1575 6.79797 43.7504 6.6898 43.3341 6.64243V6.59174C43.8395 6.43106 44.3098 6.17588 44.72 5.83979C45.0858 5.5397 45.3874 5.16904 45.6069 4.7499C45.8147 4.34783 45.9221 3.9014 45.9198 3.4488C45.9275 3.06465 45.8404 2.68451 45.6663 2.34202C45.4882 2.01064 45.2334 1.72673 44.9231 1.51404C44.5621 1.2684 44.1578 1.0935 43.7315 0.998667C43.2077 0.879876 42.6718 0.823168 42.1348 0.829699C41.7814 0.830799 41.4285 0.85621 41.0787 0.905743C40.7167 0.955743 40.3584 1.02911 40.0059 1.1254C39.6667 1.21724 39.3381 1.34469 39.0256 1.5056L39.2621 2.8405C39.51 2.73911 39.7494 2.65181 39.9806 2.57859C40.2117 2.50537 40.4341 2.44623 40.6478 2.40117C40.8618 2.35648 41.0703 2.32267 41.2732 2.29977C41.4696 2.2776 41.667 2.26632 41.8646 2.26598C42.2222 2.26007 42.5794 2.29409 42.9294 2.36737C43.183 2.41837 43.4241 2.51885 43.6389 2.66308C43.8141 2.78647 43.9516 2.95612 44.036 3.1531C44.1254 3.37583 44.1686 3.6144 44.163 3.85434C44.1678 4.18393 44.0893 4.50939 43.9349 4.80059C43.7778 5.08772 43.5584 5.33601 43.2927 5.52719C42.9933 5.7413 42.6588 5.90142 42.3042 6.00031C41.8921 6.11708 41.4653 6.174 41.0369 6.1693H40.7156L40.5131 7.4873H41.0538C41.5525 7.48056 42.0505 7.52301 42.5408 7.61403C42.9078 7.67964 43.2598 7.8113 43.5797 8.00266C43.8415 8.16209 44.0549 8.38995 44.1967 8.66167C44.3378 8.95374 44.4072 9.27523 44.3992 9.59948C44.4082 9.92751 44.3447 10.2535 44.2134 10.5542C44.0879 10.8211 43.8922 11.0489 43.6473 11.2132C43.3547 11.4041 43.0276 11.5361 42.6845 11.6018C42.2312 11.6925 41.7695 11.735 41.3073 11.7286C41.1383 11.7286 40.9721 11.7229 40.8085 11.7117C40.645 11.7004 40.4732 11.6835 40.2932 11.661C40.1131 11.6384 39.9245 11.6075 39.7274 11.568C39.5303 11.5286 39.3134 11.4807 39.0768 11.4244L38.8572 12.8607C39.1046 12.9057 39.344 12.948 39.5753 12.9874C39.8066 13.0268 40.0346 13.0606 40.2594 13.0888C40.4847 13.1166 40.7044 13.1363 40.9187 13.1479C41.1329 13.1596 41.3413 13.1652 41.5439 13.1648C42.0823 13.169 42.6199 13.1209 43.1491 13.0212C43.5988 12.9373 44.0341 12.7893 44.4418 12.5819C44.7977 12.4013 45.1181 12.158 45.3877 11.8637C45.6419 11.5812 45.8372 11.2509 45.9623 10.8921C46.0965 10.4978 46.1623 10.0835 46.1569 9.66707C46.1618 9.27061 46.0986 8.87625 45.9702 8.50114Z"/>
</svg>

<svg xmlns="http://www.w3.org/2000/svg" fill="currentColor" viewBox="0 0 47 14"><path d="M0 12.997V.998h3.937v12H0Zm9.294-10.09 2.264 10.09H7.25L4.545.998h2.417a2.276 2.276 0 0 1 1.513.55c.42.346.71.826.819 1.36Zm2.855 10.09V.998h3.938v12h-3.938Zm6.912-7.436a2.382 2.382 0 0 1-2.4-2.4 2.301 2.301 0 0 1 .321-1.2A2.41 2.41 0 0 1 20.26 1.1c.356.21.653.506.862.862.215.363.326.778.321 1.2a2.35 2.35 0 0 1-.321 1.208 2.4 2.4 0 0 1-.862.87 2.302 2.302 0 0 1-1.2.321Zm2.99 7.436V.998h3.938v12h-3.937Zm8.923-5.442c.01.012.095.15.253.414.158.265.364.603.617 1.014a312.142 312.142 0 0 1 1.597 2.62c.247.411.529.876.845 1.394H29.96c-.27-.44-.516-.836-.736-1.191-.22-.355-.453-.738-.7-1.15-.248-.41-.493-.81-.736-1.2-.242-.388-.45-.73-.625-1.022-.175-.293-.296-.49-.363-.591a1.747 1.747 0 0 1-.287-.845c.016-.29.11-.57.27-.812.067-.112.191-.312.371-.6a182.106 182.106 0 0 0 1.37-2.23l.7-1.158.736-1.2h4.326L30.94 6.457a1.08 1.08 0 0 0-.17.54c.012.202.082.396.203.558ZM45.97 8.501a2.66 2.66 0 0 0-.54-.912 2.628 2.628 0 0 0-.888-.626 4.284 4.284 0 0 0-1.208-.32v-.051a4.19 4.19 0 0 0 1.386-.752c.366-.3.667-.671.887-1.09.208-.402.315-.849.313-1.301a2.34 2.34 0 0 0-.254-1.107 2.356 2.356 0 0 0-.743-.828 3.45 3.45 0 0 0-1.192-.515 6.843 6.843 0 0 0-1.596-.17 7.704 7.704 0 0 0-1.056.077c-.362.05-.72.123-1.073.22a4.99 4.99 0 0 0-.98.38l.236 1.335c.248-.102.487-.19.719-.262a6.782 6.782 0 0 1 1.293-.279c.196-.022.393-.034.59-.034.358-.006.715.028 1.065.101.254.051.495.152.71.296.175.123.313.293.397.49.09.223.133.461.127.701a1.96 1.96 0 0 1-.228.947 2.19 2.19 0 0 1-.642.726c-.3.214-.634.374-.989.473a4.469 4.469 0 0 1-1.267.17h-.321l-.203 1.317h.54c.5-.006.998.036 1.488.127a3.08 3.08 0 0 1 1.039.389c.262.16.475.387.617.659.14.292.21.613.202.937.01.329-.054.655-.186.955a1.628 1.628 0 0 1-.566.66c-.292.19-.62.322-.962.388-.454.09-.916.133-1.378.127a7.3 7.3 0 0 1-.498-.017 7.871 7.871 0 0 1-1.081-.144 18.48 18.48 0 0 1-.651-.144l-.22 1.437c.248.045.487.087.718.126.232.04.46.074.684.102.226.028.445.047.66.059.214.012.422.017.625.017a8.32 8.32 0 0 0 1.605-.144c.45-.084.885-.232 1.293-.44a3.32 3.32 0 0 0 .946-.717 2.86 2.86 0 0 0 .574-.972c.134-.394.2-.808.195-1.225a3.468 3.468 0 0 0-.187-1.166Z"/></svg>
